X:445
%%etbk:tnset id:134,pos:2,rep:3x,ant:
%%etbk:tnset id:282,pos:1,rep:2x,ant:Beginn mit A-Drone - 1A:Flu - 1B:+Acc+Fid Tempo: 96
%%etbk:tnset id:320,pos:1,rep:3x,ant:
%%etbk:wsite http://www.thesession.org/tunes/display/638
%%etbk:color #f5f5f5
%%etbk:pldat 2016-08-18T19:10,2016-08-17T16:35,2016-08-16T16:41,2016-08-15T18:24,2016-08-12T15:50,2016-08-10T16:50,2016-08-09T15:18,2016-06-09T19:26,2016-06-08T16:49,2016-06-07T16:53,2016-06-04T16:06,2016-06-01T15:16,2016-05-31T17:20,2016-05-30T18:14,2016-05-29T12:01,2016-05-25T16:52,2016-05-15T15:05,2016-05-11T16:59,2016-03-11T15:21,2016-03-09T16:27,2016-03-02T17:05,2016-03-01T16:40,2016-02-29T19:17,2016-02-27T14:13,2016-02-26T16:50,2016-02-23T16:14,2016-02-22T18:42,2016-02-16T17:50,2016-02-13T15:09,2016-02-08T18:44,2016-02-07T14:49,2015-09-10T15:24,2015-09-09T15:11,2015-09-08T18:01,2015-09-07T18:15,2015-07-27T19:02,2015-07-24T17:19,2015-02-22T12:58,2015-02-18T17:16,2015-02-16T19:45,2015-02-13T18:40,2015-02-03T15:39,2015-02-01T14:06,2015-01-13T17:32,2015-01-07T16:49,2014-12-31T14:27,2014-10-16T19:13,2014-10-13T18:11,2014-09-18T18:06,2014-09-14T10:39,2014-09-04T18:26,2014-09-03T18:34,2014-09-02T18:29,2014-09-01T18:30,2014-08-31T13:47,2014-08-27T18:38,2014-08-26T16:28,2014-08-14T19:21,2014-08-13T18:11,2014-08-12T19:10,2014-08-11T19:26,2014-08-10T14:22,2014-08-05T18:06,2014-08-03T14:53,2014-08-02T15:40,2014-07-30T18:45,2014-07-25T18:36,2014-07-20T14:06,2014-07-13T15:15,2014-07-05T13:26,2014-06-20T16:13,2014-06-19T19:12,2014-06-17T18:57,2014-06-15T13:50,2014-06-12T18:14,2014-06-10T18:31,2014-06-03T17:42,2014-05-28T14:46,2014-05-22T18:40,2014-05-14T17:00,2014-04-26T17:13,2014-04-24T19:43,2014-04-23T16:04,2014-04-22T18:40,2014-04-18T14:57,2014-04-06T11:38,2014-04-01T16:27,2014-03-26T16:10,2014-03-23T15:08,2014-03-06T19:21,2014-03-05T19:06,2014-03-04T19:01,2014-03-03T18:19,2014-03-02T15:46,2014-03-01T15:19,2014-02-26T17:31,2014-02-25T18:51,2014-02-24T18:29,2014-02-23T11:14,2014-02-20T18:57,2014-01-30T18:46,2014-01-29T17:13,2014-01-29T16:59,2014-01-28T15:42,2014-01-26T15:35,2014-01-20T18:52,2014-01-18T16:37,2014-01-17T17:30,2014-01-13T18:59,2014-01-12T14:52,2014-01-09T18:52,2014-01-08T17:17,2014-01-07T17:28,2014-01-06T18:17,2014-01-03T15:36,2014-01-02T10:26,2013-12-29T13:20,2013-12-28T13:41,2013-12-27T15:51,2013-12-26T13:39,2013-12-22T15:56,2013-12-21T16:27,2013-12-18T16:33,2013-12-17T15:44,2013-12-16T18:29,2013-12-15T15:37,2013-12-11T16:43,2013-12-10T18:49,2013-12-09T18:23,2013-12-07T17:33
T: Lord Mayo
Z: Piano Box Version by Martin Fleischmann
H: Created 2013-02-19 /  Last Modified 2014-06-10
M: 2/4
L: 1/8
R: march
K: Ador
|: "am"!1!A!1!G !1!A!2!B/!3!d/ | !4!e>!5!g !4!e/!3!d/!2!B/!3!d/ | !4!e!1!A A!2!B/!1!A/ | "em"!3!G/A/G/F/ !1!E/!2!A/!1!D/!3!B/|
"am"!2!A!1!G !2!A!3!B/!4!d/ | "C"!3!e>!4!f !5!gf/g/ | "G"!3!e/!5!g/!4!f/!5!g/ !4!e/!3!d/!2!B/!1!G/ | "D"!1!AA//A//A/ A2:||
|: "am"!4!a>{b}a !3!g/!2!e/g/a/ | "em"!5!b !5!b- b/a/!3!g/a/ |  "C"!2!e/e/!1!d/B/ d/e/!4!g | "G"!1!G>A G>b |
|1 "am"!4!a>{b}a g/e/g/a/ | "em"!5!b !5!b- b/a/!3!g/a/ | "C"!2!e/e/!1!d/B/ d/e/!4!g | "D"!5!!4!a>b ag//a//b/:|
|2 "am"{c}!2!A/G/A/!3!B/ !4!dB | !2!A/{c}A/!1!G "C"!5!g>e | "G"!3!d>!4!e !3!d/!4!e/!2!B/!1!G/ |"D"!1!AA//A//A/ A2||


